src/assets/selectIconsSpells/tuono_2.svg

<svg xmlns="http://www.w3.org/2000/svg" viewBox="0 0 512 512"><path d="M0 0h512v512H0z"/><path fill="#fff" d="M36.482 18.307l68.088 108.87-66.244 57.555 98.518 117.485-15.184 61.19 31.707 47.357c-7.105 4.968-13.8 10.476-20.04 16.463L68.268 346.8l30.278-15.138-80.19-122.713v78.92l25.94 34.96-17.662 31.54 33.834 33.485-24.6 37.483 60.45 54.406c-1.99 4.436-3.804 8.97-5.415 13.604h317.196c-1.926-5.546-4.137-10.952-6.604-16.213l64.03-65.492-51.272-58.762 2.412-9.872 17.65-35.838 38.887 29.164 20.445-24.053v-94.176l-37.71 64.083-35.904-31.76-35.458 145.218-38.77 15.212c-9.884-6.924-20.553-12.805-31.857-17.488l74.93-104.864-23.672-39.678 48.473-72.346-93.783 7.504 45.834-79.63 33.914 31.183 69.215-117.233h-21.7l-51.866 87.843-34.108-31.36-63.893 111.005-25.52 2.043 95.906-169.53h-134.18l-53.642 245.225 85.873-22.902-28.32 49.206-53.696 15.998 7.63 85.092c-7.638 2.81-15.008 6.158-22.07 10l-27.48-41.043 15.48-62.39-6.643-7.925-59.22-102.59 85.745-45.503-47.238-123.168H36.482zm283.875 207.755l-86 155.25c-8.45.748-16.718 2.11-24.752 4.057l-5.916-65.99 46.195-13.763 41.314-71.78 29.157-7.774zm33.332 39.946l12.873 21.576-71.024 99.395c-6.507-1.84-13.18-3.295-19.99-4.347l78.14-116.625zm55.14 109.084l31.264 35.83-47.92 49.014c-8.19-13.21-18.144-25.19-29.55-35.602l37.804-14.834 8.402-34.408zM74.018 401.268l43.662 43.212c-4.532 5.75-8.697 11.805-12.46 18.13l-44.927-40.43 13.725-20.912z"/></svg>

<?xml version="1.0" encoding="UTF-8" standalone="no"?>
<!DOCTYPE svg PUBLIC "-//W3C//DTD SVG 1.1//EN" "http://www.w3.org/Graphics/SVG/1.1/DTD/svg11.dtd">
<svg width="100%" height="100%" viewBox="0 0 512 512" version="1.1" xmlns="http://www.w3.org/2000/svg" xmlns:xlink="http://www.w3.org/1999/xlink" xml:space="preserve" xmlns:serif="http://www.serif.com/" style="fill-rule:evenodd;clip-rule:evenodd;stroke-linejoin:round;stroke-miterlimit:2;">
    <rect x="0" y="0" width="512" height="512" style="fill-rule:nonzero;"/>
    <path d="M36.482,18.307L104.57,127.177L38.326,184.732L136.844,302.217L121.66,363.407L153.367,410.764C146.262,415.732 139.567,421.24 133.327,427.227L68.268,346.8L98.546,331.662L18.356,208.949L18.356,287.869L44.296,322.829L26.634,354.369L60.468,387.854L35.868,425.337L96.318,479.743C94.328,484.179 92.514,488.713 90.903,493.347L408.099,493.347C406.173,487.801 403.962,482.395 401.495,477.134L465.525,411.642L414.253,352.88L416.665,343.008L434.315,307.17L473.202,336.334L493.647,312.281L493.647,218.105L455.937,282.188L420.033,250.428L384.575,395.646L345.805,410.858C335.921,403.934 325.252,398.053 313.948,393.37L388.878,288.506L365.206,248.828L413.679,176.482L319.896,183.986L365.73,104.356L399.644,135.539L468.859,18.306L447.159,18.306L395.293,106.149L361.185,74.789L297.292,185.794L271.772,187.837L367.678,18.307L233.498,18.307L179.856,263.532L265.729,240.63L237.409,289.836L183.713,305.834L191.343,390.926C183.705,393.736 176.335,397.084 169.273,400.926L141.793,359.883L157.273,297.493L150.63,289.568L91.41,186.978L177.155,141.475L129.917,18.307L36.482,18.307ZM320.357,226.062L234.357,381.312C225.907,382.06 217.639,383.422 209.605,385.369L203.689,319.379L249.884,305.616L291.198,233.836L320.355,226.062L320.357,226.062ZM353.689,266.008L366.562,287.584L295.538,386.979C289.031,385.139 282.358,383.684 275.548,382.632L353.688,266.007L353.689,266.008ZM408.829,375.092L440.093,410.922L392.173,459.936C383.983,446.726 374.029,434.746 362.623,424.334L400.427,409.5L408.829,375.092ZM74.018,401.268L117.68,444.48C113.148,450.23 108.983,456.285 105.22,462.61L60.293,422.18L74.018,401.268Z" style="fill:rgb(246,219,151);fill-rule:nonzero;"/>
</svg>
